X:1
T:Title
%%score [ 1 2 3 4 ]
L:1/8
Q:1/4=120
M:none
K:D
V:1 treble nm="S."
V:2 treble nm="A."
V:3 treble-8 nm="T."
V:4 bass nm="B."
V:1
 A6 A2 A4"^Alleluia! Cognoverunt discipuli" A4 B4"^William Byrd""^(1543-1623)" c4 | %1
w: Al- le- lu- ia, al- le-|
 d6 c2 A4 B4 A4 A3 ^GABcB | cd e2 E3 ^DEF^GABA A4 !courtesy!^G2 A4 z2 | %3
w: lu * * * ia, al- le- lu * * *|* * ia, al- le- lu * * * * * * * ia.|
 F4 B2 ^A4 B4 c2 d4 d2 c2 e4 d2 c2 d4 c2 | d4 z2 d2 c>BcA B4 A8 z4 | z2 A2 G>FGE F4 E2 e2 d>cdB | %6
w: Cog- no- ve- runt di- sci- pu- li Do- mi- num Je *|sum in frac- ti- o- ne pa- nis,|in frac- ti- o- ne pa- nis, in frac- ti- o- ne|
 c4 A2 ABcd c2 B4 A4 B4 | c4 A8 z2 dcBA G2 F4 z4 | A4 B4 c4 A4 A2 A2 A8 A8 | %9
w: pa- nis, pa * * * * nis. Al- le-|lu- ia, al- le- lu * * ia,|al- le- lu- ia, al- le- lu- ia.|
 A2 A2 B8 B4 z4 e3 dcBAB |"^____" c4 A4 z8 A3 GFEDE F4 E8 | %11
w: Al- le- lu- ia, al- le- lu * * *|* ia, al- le- lu * * * * ia.|
V:2
 z4 D3 CDEFEFG A4 ^G2 A4 | F3 E FG A3 G/F/EF D2 E2 E2 A,3 B,CB,CD E2 | %2
w: Al- le- lu * * * * * * * ia,|al- le- lu * * * * * * * * ia, al- le- lu * * * *|
w: ||
 E4 A2 ^G2 A2 E2 E2 ^D2 E4 C4 z2 | D4 F2 F4 ^G4 A2 B3 B A2 A3 =G E2 F3 ED/E/F/G/ A3 G | %4
w: ia, al- le- lu- ia, al- le- lu- ia.|Cog- no- ve- runt di- sci- pu- li Do- mi- num Je * * * * * * *|
w: ||
 F8 z2 A2 G>FGE F4 E8 | z2 A,2 B,>A,B,C D4 A,4 z4 | z2 A2 F>EF^G A4 !courtesy!^G4 z8 | %7
w: sum in frac- ti- o- ne pa- nis,|in frac- ti- o- ne pa- nis,|in frac- ti- o- ne pa- nis.|
w: |||
 z2 AG FE D2 C2 CB,A,G, F,2 z4 D4 E4 | F4 D4 z4 z2 AGFE D2 CE>D D2 C/B,/ C2 D8 | %9
w: Al- le- lu * * ia, * * * * * al- le-|lu- ia, al- le- lu * * ia, al- le- lu * * * ia.|
w: * * * * * * al- le- lu * ia, * *||
 F3 E ^D2 E4 D2 E4 z2 A4 ^G2 A4 | E4 z4 A3 GFEDE F2 E2 D2 D2 A,2 D4 CB, C4 | %11
w: Al- le- lu * * ia, al- le- lu-|ia, al- le- lu * * * * * ia, al- le- lu * * ia.|
w: ||
V:3
 z8 d3 cdefedcBe A4 | z4 A3 ^GABcd B4 c4 z4 A3 !courtesy!^G | ABcB cd e2 E3 F ^G2 A2 B4 A4 z2 | %3
w: Al- le- lu * * * * * * * ia,|al- le- lu * * * * ia, al- le-|lu * * * * * ia, al- le- lu * * ia.|
 A4 d2 c4 e2 e4 g4 f2 e6 a3 g f2 e4 | d2 B2 A>GAF A4 d4 z2 d2 c>BcA B4 | %5
w: Cog- no- ve- runt di- sci- pu- li Do- mi- num Je-|sum in frac- ti- o- ne pa- nis, in frac- ti- o- ne pa-|
 A2 cd e2 E2 B2 A2 z2 A2 F>EF^G | A6 D2 E4 z2 edcB A4 ^G2 | A4 d4 e4 f4 d2 B3 c d4 c2 | %8
w: nis, pa * * * * nis, in frac- ti- o- ne|pa * nis. Al- le- lu * * *|ia, al- le- lu- ia, al- le- lu *|
 d4 z4 A3 B c2 F2 AG F2 E2 GFED E2 F8 | d3 c BAGA B4 E2 B3 B c2 B4 e3 d | %10
w: ia, al- le- lu- ia, al- le- lu- ia, al- le- lu * * ia.|Al- le- lu * * * * ia, al- le- lu- ia, al- le-|
 cBAB c2 d4 c2 d4 A2 A3 GFEDEFG A8 | %11
w: lu * * * ia, al- le- lu- ia, al- le- lu * * * * * ia.|
V:4
 z8 z8 z8 | D,3 C, D,E,F,E,F,G, A,4 ^G,2 A,4 z8 | A,,3 ^G,, A,,B,,C,B,,C,D, E,4 F,2 E,4 A,,4 z2 | %3
w: |Al- le- lu * * * * * * * ia,|al- le- lu * * * * * * * * ia.|
"^This edition ?  Andrew Sims 2010" D,4 B,,2 F,4 E,4 A,2 G,3 G, D,2 A,3 B, C2 D2 A,8 | %4
w: Cog- no- ve- runt di- sci- pu- li Do- mi- num Je *|
 D,8 F,4 G,4 D,4 z2 A,2 G,>F,G,E, | F,4 E,4 z2 D,2 C,>B,,C,A,, B,,4 | %6
w: sum, Je * sum in frac- ti- o- ne|pa- nis, in frac- ti- o- ne pa-|
 A,,4 D,3 C,/B,,/A,,B,,C,A,, E,4 z2 F,E,D,C, B,,2 | A,,4 z4 z2 A,G,F,E, D,2 D,4 z2 B,A,G,F, E,2 | %8
w: nis, pa * * * * * * nis. Al- le- lu * *|ia, al- le- lu * * ia, al- le- lu * *|
 D,2 DC B,A, G,2 F,2 A,G,F,E, D,2 D,4 A,,2 A,,2 A,,4 D,8 | z8 z4 G,3 F,E,D,C,D, E,4 A,,4 | %10
w: ia, al- le- lu * * ia, al- le- lu * * ia, al- le- lu- ia.|Al- le- lu * * * * ia,|
"^Alleluia. The disciples recognised the Lord Jesus in the breaking of bread." A,3 G, F,E,D,E, F,4 D,2 D,4 C,2 D,8 A,,8 | %11
w: al- le- lu * * * * ia, al- le- lu- ia.|

